badges/Go.svg

<svg height="24" viewBox="0 0 44 24" width="44" xmlns="http://www.w3.org/2000/svg" xmlns:xlink="http://www.w3.org/1999/xlink"><clipPath id="a"><path d="m0 0h16v16h-16z"/></clipPath><path d="m5.999 0h32.002q.1473 0 .2944.00722606.147.00722604.2936.02166074.1466.0144347.2922.0360433.1457.0216086.2901.0503389.1445.02873.2873.064513.1429.035783.2838.078533.1409.042749.2796.092362.1387.049613.2747.10597.1361.056356.2692.119321.1331.062965.263.132386.1299.069422.2562.145132.1263.07571.2488.157524.1224.08182.2407.16955.1183.08772.2321.18115.1139.09343.223.19232.1091.0989.2132.20304.1042.10413.2031.21325.0989.10912.1923.22295.0934.11384.1811.23213.0878.11829.1696.24073.0818.12245.1575.24877.0757.12631.1451.25619.0695.12988.1324.26301.063.13312.1193.26918.0564.13606.106.27472.0496.13866.0924.27958.0427.14093.0785.28378.0358.14286.0645.28729.0288.14444.0504.29011.0216.14568.036.29224.0144.14655.0217.29364.0072.14709.0072.29436v12.002q0 .1473-.0072.2944-.0073.147-.0217.2936-.0144.1466-.036.2922-.0216.1457-.0504.2901-.0287.1445-.0645.2873-.0358.1429-.0785.2838-.0428.1409-.0924.2796-.0496.1387-.106.2747-.0563.1361-.1193.2692-.0629.1331-.1324.263-.0694.1299-.1451.2562-.0757.1263-.1575.2488-.0818.1224-.1696.2407-.0877.1183-.1811.2321-.0934.1139-.1923.223-.0989.1091-.2031.2132-.1041.1042-.2132.2031-.1091.0989-.223.1923-.1138.0934-.2321.1811-.1183.0878-.2407.1696-.1225.0818-.2488.1575-.1263.0757-.2562.1451-.1299.0695-.263.1324-.1331.063-.2692.1193-.136.0564-.2747.106-.1387.0496-.2796.0924-.1409.0427-.2838.0785-.1428.0358-.2873.0645-.1444.0288-.2901.0504-.1456.0216-.2922.036-.1466.0144-.2936.0217-.1471.0072-.2944.0072h-32.002q-.14727 0-.29436-.0072-.14709-.0073-.29364-.0217-.14656-.0144-.29224-.036-.14567-.0216-.29011-.0504-.14443-.0287-.28729-.0645-.14285-.0358-.28378-.0785-.14092-.0428-.27958-.0924-.13866-.0496-.27472-.106-.13606-.0563-.26918-.1193-.13313-.0629-.26301-.1324-.12988-.0694-.25619-.1451-.12632-.0757-.24877-.1575-.12244-.0818-.24073-.1696-.11829-.0877-.23213-.1811-.11383-.0934-.22295-.1923-.10912-.0989-.21325-.2031-.10414-.1041-.20304-.2132-.09889-.1091-.19232-.223-.09342-.1138-.18115-.2321-.08773-.1183-.16955-.2407-.081814-.1225-.157524-.2488-.07571-.1263-.145132-.2562-.069421-.1299-.132386-.263-.062965-.1331-.119321-.2692-.056357-.136-.10597-.2747-.049613-.1387-.092362-.2796-.04275-.1409-.078533-.2838-.035783-.1428-.064513-.2873-.0287303-.1444-.0503389-.2901-.0216086-.1456-.0360433-.2922-.0144347-.1466-.02166074-.2936-.00722606-.1471-.00722606-.2944v-12.002q0-.14727.00722606-.29436.00722604-.14709.02166074-.29364.0144347-.14656.0360433-.29224.0216086-.14567.0503389-.29011.02873-.14443.064513-.28729.035783-.14285.078533-.28378.042749-.14092.092362-.27958.049613-.13866.10597-.27472.056356-.13606.119321-.26918.062965-.13313.132386-.26301.069422-.12988.145132-.25619.07571-.12632.157524-.24877.08182-.12244.16955-.24073.08772-.11829.18115-.23213.09343-.11383.19232-.22295.0989-.10912.20304-.21325.10413-.10414.21325-.20304.10912-.09889.22295-.19232.11384-.09342.23213-.18115.11829-.08773.24073-.16955.12245-.081814.24877-.157524.12631-.07571.25619-.145132.12988-.069421.26301-.132386.13312-.062965.26918-.119321.13606-.056357.27472-.10597.13866-.049613.27958-.092362.14093-.04275.28378-.078533.14286-.035783.28729-.064513.14444-.0287303.29011-.0503389.14568-.0216086.29224-.0360433.14655-.0144347.29364-.02166074.14709-.00722606.29436-.00722606z" fill="#00acd7" fill-rule="evenodd"/><path d="m5.999 2h12.002q.1965 0 .392.01926.1955.01925.3882.05758.1927.03833.3806.09536.188.05702.3696.13221.1815.07518.3547.16779.1733.09261.3366.20175.1634.10915.3152.23378.1519.12463.2908.26355.1389.13892.2636.29078.1246.15187.2337.31521.1092.16335.2018.33661.0926.17327.1678.35477.0752.1815.1322.3695.057.188.0954.38068.0383.19269.0575.3882.0193.19551.0193.39197v12.002q0 .1965-.0193.392-.0192.1955-.0575.3882-.0384.1927-.0954.3806-.057.188-.1322.3696-.0752.1815-.1678.3547-.0926.1733-.2018.3366-.1091.1634-.2337.3152-.1247.1519-.2636.2908-.1389.1389-.2908.2636-.1518.1246-.3152.2337-.1633.1092-.3366.2018-.1732.0926-.3547.1678-.1816.0752-.3696.1322-.1879.057-.3806.0954-.1927.0383-.3882.0575-.1955.0193-.392.0193h-12.002q-.19646 0-.39197-.0193-.19551-.0192-.3882-.0575-.19268-.0384-.38068-.0954-.188-.057-.3695-.1322-.1815-.0752-.35477-.1678-.17326-.0926-.33661-.2018-.16334-.1091-.31521-.2337-.15186-.1247-.29078-.2636-.13892-.1389-.26355-.2908-.12463-.1518-.23378-.3152-.10914-.1633-.20175-.3366-.09261-.1732-.16779-.3547-.07519-.1816-.13221-.3696-.05703-.1879-.09536-.3806-.03833-.1927-.05758-.3882-.01926-.1955-.01926-.392v-12.002q0-.19646.01926-.39197.01925-.19551.05758-.3882.03833-.19268.09536-.38068.05702-.188.13221-.3695.07518-.1815.16779-.35477.09261-.17326.20175-.33661.10915-.16334.23378-.31521.12463-.15186.26355-.29078.13892-.13892.29078-.26355.15187-.12463.31521-.23378.16335-.10914.33661-.20175.17327-.09261.35477-.16779.1815-.07519.3695-.13221.188-.05703.38068-.09536.19269-.03833.3882-.05758.19551-.01926.39197-.01926z" fill="#fff" fill-rule="evenodd"/><path d="m5.03374 3.64027q.48117.37465.68714 1.02095h1.12571q-.12074-.71023-.54155-1.25-.42081-.53977-1.06001-.84339-.63921-.30363-1.42401-.30363-.94105 0-1.67613.451-.73509.45099-1.157674 1.28906-.422585.83807-.422585 1.99929 0 1.15057.415483 1.98864.415486.83807 1.161226 1.29084.74573.45277 1.7294.45277.88423 0 1.56605-.36577.68182-.36577 1.07067-1.03871.38885-.67294.38885-1.58913v-.82742h-2.85867v.90554h1.79688q-.01776.88068-.55398 1.39737-.53622.5167-1.4098.5167-.63921 0-1.13992-.31606-.50071-.31605-.78835-.92684-.28764-.6108-.28764-1.49503 0-.88068.28587-1.4897.28586-.60902.77947-.92507.49361-.31606 1.10795-.31606.72444 0 1.20562.37465zm4.12819 5.75462q.57173.35156 1.33877.35156.7706 0 1.3406-.35156.5699-.35157.886-.98544.316-.63388.316-1.4755 0-.84872-.316-1.48438-.3161-.63565-.886-.98721-.57-.35156-1.3406-.35156-.76704 0-1.33877.35156-.57173.35156-.88778.98721-.31605.63566-.31605 1.48438 0 .84162.31605 1.4755.31605.63387.88778.98544zm2.16797-.80256q-.3249.26278-.8256.26278-.5007 0-.82745-.26278-.32671-.26278-.48651-.70135-.1598-.43857-.1598-.96058 0-.52202.1598-.96236.1598-.44034.48651-.7049.32675-.26456.82745-.26456.5007 0 .8256.26456.3249.26456.483.7049.158.44034.158.96236 0 .52201-.158.96058-.1581.43857-.483.70135z" fill="#fff" transform="translate(26 6)"/><g transform="translate(4 4.216309)"><path d="m0 0h16v16h-16z" fill="none"/><g clip-path="url(#a)"><g fill="#00acd7" fill-rule="evenodd" transform="translate(.220215 5.093384)"><path d="m1.17437 1.76023c-.03038 0-.03788-.01525-.02275-.03787l.15912-.20463c.015-.02275.053-.03787.08325-.03787h2.70463c.03037 0 .03787.02275.02275.0455l-.12875.197c-.01513.02262-.053.04537-.07575.04537zm-1.1440737.6969c-.03024997 0-.03787497-.015-.02274998-.03787l.15912468-.2045c.015125-.02275.053-.03788.083375-.03788h3.454504c.03025 0 .0455.02275.03787.0455l-.06062.18175c-.0075.03037-.03788.0455-.06813.0455zm1.8331637.69702c-.03025 0-.03775-.02275-.02263-.0455l.106-.18937c.01525-.02275.0455-.04538.07588-.04538h1.515c.03037 0 .0455.02263.0455.053l-.015.18175c0 .03038-.03038.05313-.05313.05313zm7.86378-1.5303c-.47738.12125-.80313.21212-1.27275.33325-.11375.03037-.12125.03788-.21975-.07575-.11363-.12875-.197-.21212-.356-.28788-.47738-.23474-.9395-.16662-1.37125.11375-.51513.33325-.78025.82563-.77275 1.43925.0075.60613.42425 1.10613 1.02275 1.1895.51512.06813.947-.11375 1.28787-.5.06813-.08337.12875-.17425.2045-.28037h-1.46212c-.159 0-.19688-.0985-.14388-.22725.0985-.23487.28025-.62875.38625-.82575.02288-.0455.07588-.12125.1895-.12125h2.7575c-.015.20463-.015.40912-.04537.61375-.08338.54537-.28788 1.04537-.62125 1.48475-.5455.71975-1.2575 1.16662-2.15913 1.28787-.74237.09851-1.43175-.04549-2.03775-.5-.56062-.42424-.87875-.98487-.96212-1.68175-.0985-.82575.14387-1.56825.64387-2.21975.53788-.704495 1.25-1.151495 2.12125-1.3106203.71213-.1287499 1.39388-.0453749 2.0075.3712503.4015.265125.68938.62875.87875 1.06812.0455.06826.01525.10613-.07575.12875z"/><path d="m12.2348 5.81323c-.6894-.01525-1.3182-.21212-1.8485-.66675-.44698-.38624-.72723-.87874-.8181-1.46212-.13638-.856.09837-1.61363.6136-2.28775.553-.727375 1.2196-1.106125 2.1213-1.26525.7726-.13625044 1.5-.0605006 2.159.386375.5985.409124.9696.962125 1.0681 1.689375.1287 1.02275-.1666 1.85612-.8713 2.56825-.5.5075-1.1136.82575-1.8181.96963-.2045.03787-.4091.04549-.606.06824zm1.803-3.06068c-.0075-.0985-.0075-.17425-.0227-.25-.1363-.75-.8258-1.17425-1.5454-1.0075-.7046.159-1.1591.606-1.3257 1.31813-.1364.59087.1515 1.18937.6968 1.43175.4168.18187.8334.15912 1.2349-.04538.5985-.31062.9243-.7955.9621-1.447z"/></g></g></g></svg>

<?xml version="1.0" encoding="utf-8"?>
<svg width="44px" height="24px" viewBox="0 0 44 24" version="1.1" xmlns:xlink="http://www.w3.org/1999/xlink" xmlns="http://www.w3.org/2000/svg">
  <defs>
    <path d="M0 0L16 0L16 16L0 16L0 0Z" id="path_1" />
    <clipPath id="mask_1">
      <use xlink:href="#path_1" />
    </clipPath>
  </defs>
  <g id="Group-62">
    <g id="Group-54">
      <path d="M5.999 0L38.001 0Q38.1483 0 38.2954 0.00722606Q38.4424 0.0144521 38.589 0.0288868Q38.7356 0.0433215 38.8812 0.0649301Q39.0269 0.0865387 39.1713 0.115269Q39.3158 0.143999 39.4586 0.179782Q39.6015 0.215565 39.7424 0.258315Q39.8833 0.301064 40.022 0.350677Q40.1607 0.40029 40.2967 0.456647Q40.4328 0.513003 40.5659 0.575968Q40.699 0.638933 40.8289 0.708354Q40.9588 0.777776 41.0851 0.853486Q41.2114 0.929196 41.3339 1.01101Q41.4563 1.09283 41.5746 1.18056Q41.6929 1.26828 41.8067 1.36171Q41.9206 1.45514 42.0297 1.55403Q42.1388 1.65293 42.2429 1.75707Q42.3471 1.8612 42.446 1.97032Q42.5449 2.07944 42.6383 2.19327Q42.7317 2.30711 42.8194 2.4254Q42.9072 2.54369 42.989 2.66613Q43.0708 2.78858 43.1465 2.9149Q43.2222 3.04121 43.2916 3.17109Q43.3611 3.30097 43.424 3.4341Q43.487 3.56722 43.5433 3.70328Q43.5997 3.83934 43.6493 3.978Q43.6989 4.11666 43.7417 4.25758Q43.7844 4.39851 43.8202 4.54136Q43.856 4.68422 43.8847 4.82865Q43.9135 4.97309 43.9351 5.11876Q43.9567 5.26444 43.9711 5.411Q43.9855 5.55755 43.9928 5.70464Q44 5.85173 44 5.999L44 18.001Q44 18.1483 43.9928 18.2954Q43.9855 18.4424 43.9711 18.589Q43.9567 18.7356 43.9351 18.8812Q43.9135 19.0269 43.8847 19.1713Q43.856 19.3158 43.8202 19.4586Q43.7844 19.6015 43.7417 19.7424Q43.6989 19.8833 43.6493 20.022Q43.5997 20.1607 43.5433 20.2967Q43.487 20.4328 43.424 20.5659Q43.3611 20.699 43.2916 20.8289Q43.2222 20.9588 43.1465 21.0851Q43.0708 21.2114 42.989 21.3339Q42.9072 21.4563 42.8194 21.5746Q42.7317 21.6929 42.6383 21.8067Q42.5449 21.9206 42.446 22.0297Q42.3471 22.1388 42.2429 22.2429Q42.1388 22.3471 42.0297 22.446Q41.9206 22.5449 41.8067 22.6383Q41.6929 22.7317 41.5746 22.8194Q41.4563 22.9072 41.3339 22.989Q41.2114 23.0708 41.0851 23.1465Q40.9588 23.2222 40.8289 23.2916Q40.699 23.3611 40.5659 23.424Q40.4328 23.487 40.2967 23.5433Q40.1607 23.5997 40.022 23.6493Q39.8833 23.6989 39.7424 23.7417Q39.6015 23.7844 39.4586 23.8202Q39.3158 23.856 39.1713 23.8847Q39.0269 23.9135 38.8812 23.9351Q38.7356 23.9567 38.589 23.9711Q38.4424 23.9855 38.2954 23.9928Q38.1483 24 38.001 24L5.999 24Q5.85173 24 5.70464 23.9928Q5.55755 23.9855 5.411 23.9711Q5.26444 23.9567 5.11876 23.9351Q4.97309 23.9135 4.82865 23.8847Q4.68422 23.856 4.54136 23.8202Q4.39851 23.7844 4.25758 23.7417Q4.11666 23.6989 3.978 23.6493Q3.83934 23.5997 3.70328 23.5433Q3.56722 23.487 3.4341 23.424Q3.30097 23.3611 3.17109 23.2916Q3.04121 23.2222 2.9149 23.1465Q2.78858 23.0708 2.66613 22.989Q2.54369 22.9072 2.4254 22.8194Q2.30711 22.7317 2.19327 22.6383Q2.07944 22.5449 1.97032 22.446Q1.8612 22.3471 1.75707 22.2429Q1.65293 22.1388 1.55403 22.0297Q1.45514 21.9206 1.36171 21.8067Q1.26829 21.6929 1.18056 21.5746Q1.09283 21.4563 1.01101 21.3339Q0.929196 21.2114 0.853486 21.0851Q0.777776 20.9588 0.708354 20.8289Q0.638933 20.699 0.575968 20.5659Q0.513003 20.4328 0.456647 20.2967Q0.40029 20.1607 0.350677 20.022Q0.301064 19.8833 0.258315 19.7424Q0.215565 19.6015 0.179782 19.4586Q0.143999 19.3158 0.115269 19.1713Q0.0865387 19.0269 0.0649301 18.8812Q0.0433215 18.7356 0.0288868 18.589Q0.0144521 18.4424 0.00722606 18.2954Q0 18.1483 0 18.001L0 5.999Q0 5.85173 0.00722606 5.70464Q0.0144521 5.55755 0.0288868 5.411Q0.0433215 5.26444 0.0649301 5.11876Q0.0865387 4.97309 0.115269 4.82865Q0.143999 4.68422 0.179782 4.54136Q0.215565 4.39851 0.258315 4.25758Q0.301064 4.11666 0.350677 3.978Q0.40029 3.83934 0.456647 3.70328Q0.513003 3.56722 0.575968 3.4341Q0.638933 3.30097 0.708354 3.17109Q0.777776 3.04121 0.853486 2.9149Q0.929196 2.78858 1.01101 2.66613Q1.09283 2.54369 1.18056 2.4254Q1.26828 2.30711 1.36171 2.19327Q1.45514 2.07944 1.55403 1.97032Q1.65293 1.8612 1.75707 1.75707Q1.8612 1.65293 1.97032 1.55403Q2.07944 1.45514 2.19327 1.36171Q2.30711 1.26829 2.4254 1.18056Q2.54369 1.09283 2.66613 1.01101Q2.78858 0.929196 2.9149 0.853486Q3.04121 0.777776 3.17109 0.708354Q3.30097 0.638933 3.4341 0.575968Q3.56722 0.513003 3.70328 0.456647Q3.83934 0.40029 3.978 0.350677Q4.11666 0.301064 4.25758 0.258315Q4.39851 0.215565 4.54136 0.179782Q4.68422 0.143999 4.82865 0.115269Q4.97309 0.0865387 5.11876 0.0649301Q5.26444 0.0433215 5.411 0.0288868Q5.55755 0.0144521 5.70464 0.00722606Q5.85173 0 5.999 0L5.999 0Z" id="Rectangle" fill="#00ACD7" fill-rule="evenodd" stroke="none" />
      <path d="M5.999 2L18.001 2Q18.1975 2 18.393 2.01926Q18.5885 2.03851 18.7812 2.07684Q18.9739 2.11517 19.1618 2.1722Q19.3498 2.22922 19.5314 2.30441Q19.7129 2.37959 19.8861 2.4722Q20.0594 2.56481 20.2227 2.67395Q20.3861 2.7831 20.5379 2.90773Q20.6898 3.03236 20.8287 3.17128Q20.9676 3.3102 21.0923 3.46206Q21.2169 3.61393 21.326 3.77727Q21.4352 3.94062 21.5278 4.11388Q21.6204 4.28715 21.6956 4.46865Q21.7708 4.65015 21.8278 4.83815Q21.8848 5.02615 21.9232 5.21883Q21.9615 5.41152 21.9807 5.60703Q22 5.80254 22 5.999L22 18.001Q22 18.1975 21.9807 18.393Q21.9615 18.5885 21.9232 18.7812Q21.8848 18.9739 21.8278 19.1618Q21.7708 19.3498 21.6956 19.5314Q21.6204 19.7129 21.5278 19.8861Q21.4352 20.0594 21.326 20.2227Q21.2169 20.3861 21.0923 20.5379Q20.9676 20.6898 20.8287 20.8287Q20.6898 20.9676 20.5379 21.0923Q20.3861 21.2169 20.2227 21.326Q20.0594 21.4352 19.8861 21.5278Q19.7129 21.6204 19.5314 21.6956Q19.3498 21.7708 19.1618 21.8278Q18.9739 21.8848 18.7812 21.9232Q18.5885 21.9615 18.393 21.9807Q18.1975 22 18.001 22L5.999 22Q5.80254 22 5.60703 21.9807Q5.41152 21.9615 5.21883 21.9232Q5.02615 21.8848 4.83815 21.8278Q4.65015 21.7708 4.46865 21.6956Q4.28715 21.6204 4.11388 21.5278Q3.94062 21.4352 3.77727 21.326Q3.61393 21.2169 3.46206 21.0923Q3.3102 20.9676 3.17128 20.8287Q3.03236 20.6898 2.90773 20.5379Q2.7831 20.3861 2.67395 20.2227Q2.56481 20.0594 2.4722 19.8861Q2.37959 19.7129 2.30441 19.5314Q2.22922 19.3498 2.1722 19.1618Q2.11517 18.9739 2.07684 18.7812Q2.03851 18.5885 2.01926 18.393Q2 18.1975 2 18.001L2 5.999Q2 5.80254 2.01926 5.60703Q2.03851 5.41152 2.07684 5.21883Q2.11517 5.02615 2.1722 4.83815Q2.22922 4.65015 2.30441 4.46865Q2.37959 4.28715 2.4722 4.11388Q2.56481 3.94062 2.67395 3.77727Q2.7831 3.61393 2.90773 3.46206Q3.03236 3.3102 3.17128 3.17128Q3.3102 3.03236 3.46206 2.90773Q3.61393 2.7831 3.77727 2.67395Q3.94062 2.56481 4.11388 2.4722Q4.28715 2.37959 4.46865 2.30441Q4.65015 2.22922 4.83815 2.1722Q5.02615 2.11517 5.21883 2.07684Q5.41152 2.03851 5.60703 2.01926Q5.80254 2 5.999 2Z" id="Rectangle-2" fill="#FFFFFF" fill-rule="evenodd" stroke="none" />
      <g id="Go" fill="#FFFFFF" transform="translate(26 6)">
        <path d="M5.03374 3.64027Q5.51491 4.01492 5.72088 4.66122L6.84659 4.66122Q6.72585 3.95099 6.30504 3.41122Q5.88423 2.87145 5.24503 2.56783Q4.60582 2.2642 3.82102 2.2642Q2.87997 2.2642 2.14489 2.7152Q1.4098 3.16619 0.987216 4.00426Q0.564631 4.84233 0.564631 6.00355Q0.564631 7.15412 0.980114 7.99219Q1.3956 8.83026 2.14134 9.28303Q2.88707 9.7358 3.87074 9.7358Q4.75497 9.7358 5.43679 9.37003Q6.11861 9.00426 6.50746 8.33132Q6.89631 7.65838 6.89631 6.74219L6.89631 5.91477L4.03764 5.91477L4.03764 6.82031L5.83452 6.82031Q5.81676 7.70099 5.28054 8.21768Q4.74432 8.73438 3.87074 8.73438Q3.23153 8.73438 2.73082 8.41832Q2.23011 8.10227 1.94247 7.49148Q1.65483 6.88068 1.65483 5.99645Q1.65483 5.11577 1.9407 4.50675Q2.22656 3.89773 2.72017 3.58168Q3.21378 3.26562 3.82812 3.26562Q4.55256 3.26562 5.03374 3.64027ZM9.16193 9.39489Q9.73366 9.74645 10.5007 9.74645Q11.2713 9.74645 11.8413 9.39489Q12.4112 9.04332 12.7273 8.40945Q13.0433 7.77557 13.0433 6.93395Q13.0433 6.08523 12.7273 5.44957Q12.4112 4.81392 11.8413 4.46236Q11.2713 4.1108 10.5007 4.1108Q9.73366 4.1108 9.16193 4.46236Q8.5902 4.81392 8.27415 5.44957Q7.9581 6.08523 7.9581 6.93395Q7.9581 7.77557 8.27415 8.40945Q8.5902 9.04332 9.16193 9.39489ZM11.3299 8.59233Q11.005 8.85511 10.5043 8.85511Q10.0036 8.85511 9.67685 8.59233Q9.35014 8.32955 9.19034 7.89098Q9.03054 7.45241 9.03054 6.9304Q9.03054 6.40838 9.19034 5.96804Q9.35014 5.5277 9.67685 5.26314Q10.0036 4.99858 10.5043 4.99858Q11.005 4.99858 11.3299 5.26314Q11.6548 5.5277 11.8129 5.96804Q11.9709 6.40838 11.9709 6.9304Q11.9709 7.45241 11.8129 7.89098Q11.6548 8.32955 11.3299 8.59233Z" />
      </g>
    </g>
    <g id="go-original-wordmark" transform="translate(4 4.2163086)">
      <path d="M0 0L16 0L16 16L0 16L0 0Z" id="Background" fill="none" fill-rule="evenodd" stroke="none" />
      <g clip-path="url(#mask_1)">
        <g id="Group" transform="translate(0.22021484 5.093384)">
          <path d="M1.17437 1.76023C1.14399 1.76023 1.13649 1.74498 1.15162 1.72236L1.31074 1.51773C1.32574 1.49498 1.36374 1.47986 1.39399 1.47986L4.09862 1.47986C4.12899 1.47986 4.13649 1.50261 4.12137 1.52536L3.99262 1.72236C3.97749 1.74498 3.93962 1.76773 3.91687 1.76773L1.17437 1.76023ZM0.0302963 2.45713C4.63277e-05 2.45713 -0.00757867 2.44213 0.00754632 2.41926L0.166671 2.21476C0.181796 2.19201 0.219671 2.17688 0.250046 2.17688L3.70455 2.17688C3.7348 2.17688 3.75005 2.19963 3.74242 2.22238L3.6818 2.40413C3.6743 2.4345 3.64392 2.44963 3.61367 2.44963L0.0302963 2.45713ZM1.86346 3.15415C1.83321 3.15415 1.82571 3.1314 1.84083 3.10865L1.94683 2.91928C1.96208 2.89653 1.99233 2.8739 2.02271 2.8739L3.53771 2.8739C3.56808 2.8739 3.58321 2.89653 3.58321 2.9269L3.56821 3.10865C3.56821 3.13903 3.53783 3.16178 3.51508 3.16178L1.86346 3.15415ZM9.72724 1.62385C9.24986 1.7451 8.92411 1.83597 8.45449 1.9571C8.34074 1.98747 8.33324 1.99498 8.23474 1.88135C8.12111 1.7526 8.03774 1.66923 7.87874 1.59347C7.40136 1.35873 6.93924 1.42685 6.50749 1.70722C5.99236 2.04047 5.72724 2.53285 5.73474 3.14647C5.74224 3.7526 6.15899 4.2526 6.75749 4.33597C7.27261 4.4041 7.70449 4.22222 8.04536 3.83597C8.11349 3.7526 8.17411 3.66172 8.24986 3.5556L6.78774 3.5556C6.62874 3.5556 6.59086 3.4571 6.64386 3.32835C6.74236 3.09348 6.92411 2.6996 7.03011 2.5026C7.05299 2.4571 7.10599 2.38135 7.21961 2.38135L9.97711 2.38135C9.96211 2.58598 9.96211 2.79047 9.93174 2.9951C9.84836 3.54047 9.64386 4.04047 9.31049 4.47985C8.76499 5.1996 8.05299 5.64647 7.15136 5.76772C6.40899 5.86623 5.71961 5.72223 5.11361 5.26772C4.55299 4.84348 4.23486 4.28285 4.15149 3.58597C4.05299 2.76022 4.29536 2.01772 4.79536 1.36622C5.33324 0.661725 6.04536 0.214725 6.91661 0.0555997C7.62874 -0.0731502 8.31049 0.0102248 8.92411 0.42685C9.32561 0.691975 9.61349 1.0556 9.80286 1.49497C9.84836 1.56323 9.81811 1.6011 9.72711 1.62372L9.72724 1.62385Z" id="Shape" fill="#00ACD7" fill-rule="evenodd" stroke="none" />
          <path d="M12.2348 5.81323C11.5454 5.79798 10.9166 5.60111 10.3863 5.14648C9.93932 4.76024 9.65907 4.26774 9.5682 3.68436C9.43182 2.82836 9.66657 2.07073 10.1818 1.39661C10.7348 0.669235 11.4014 0.290485 12.3031 0.13136C13.0757 -0.00489044 13.8031 0.0708594 14.4621 0.517735C15.0606 0.926859 15.4317 1.47986 15.5302 2.20711C15.6589 3.22986 15.3636 4.06323 14.6589 4.77536C14.1589 5.28286 13.5453 5.60111 12.8408 5.74499C12.6363 5.78286 12.4317 5.79048 12.2348 5.81323L12.2348 5.81323ZM14.0378 2.75255C14.0303 2.65405 14.0303 2.5783 14.0151 2.50255C13.8788 1.75255 13.1893 1.3283 12.4697 1.49505C11.7651 1.65405 11.3106 2.10105 11.144 2.81318C11.0076 3.40405 11.2955 4.00255 11.8408 4.24493C12.2576 4.4268 12.6742 4.40405 13.0757 4.19955C13.6742 3.88893 14 3.40405 14.0378 2.75255L14.0378 2.75255Z" id="Shape" fill="#00ACD7" fill-rule="evenodd" stroke="none" />
        </g>
      </g>
    </g>
  </g>
</svg>
